X:178
T: Muede kehrt ein Wandersmann zurueck
N: D1009
O: Europa, Mitteleuropa, Deutschland, Schlesien, Hirschberg
N: DVA-Signatur A 51 775
R: Liebes - Lied
M: 4/4
L: 1/8
K: G
DB | B3AGFGA | D4z2
DF | A3GFAcB | G4z2
GA | B3dcBAG | c4z
cBA | D3GFAcB | G4z2

